modules/hawcons-stroke/icons/icon-21-table-tennis.svg

<?xml version="1.0" encoding="UTF-8" standalone="no"?>
<svg width="32px" height="32px" viewBox="0 0 32 32" version="1.1" xmlns="http://www.w3.org/2000/svg" xmlns:xlink="http://www.w3.org/1999/xlink" xmlns:sketch="http://www.bohemiancoding.com/sketch/ns">
    <!-- Generator: Sketch 3.0.3 (7891) - http://www.bohemiancoding.com/sketch -->
    <title>icon 21 table tennis</title>
    <desc>Created with Sketch.</desc>
    <defs></defs>
    <g id="Page-1-Copy" stroke="none" stroke-width="1" fill="none" fill-rule="evenodd" sketch:type="MSPage">
        <g id="icon-21-table-tennis" sketch:type="MSArtboardGroup" fill="#929292">
            <path d="M8.46962127,16 C8.10651936,15.0963911 7.93964569,14.0863499 8.01577726,13.0205078 L8.09025146,11.977869 C8.32561526,8.68277588 11.2059102,6 14.5225505,6 L15.5119337,6 C18.8236337,6 21.7084123,8.67638312 21.9442327,11.977869 L22.0187069,13.0205078 C22.0948414,14.0863898 21.9275737,15.0964199 21.5710848,16 L8.46962127,16 L8.46962127,16 Z M8.97767822,17 C10.1104311,18.8131256 12.1279235,20 14.5122109,20 L15.5222732,20 C17.9032301,20 19.9215743,18.8131969 21.0554179,17 L8.97767822,17 L8.97767822,17 Z M17.5710848,26.0024557 C17.6017089,26.553689 17.1285438,27 16.5710848,27 L13.5710848,27 C13.0050691,27 12.5420541,26.553384 12.5726612,26.0024554 L12.8602468,20.8259145 C9.29135991,20.0600634 6.77613699,16.8576818 7.01577726,13.0234375 L7.08008229,11.994557 C7.32205813,8.12294364 10.6489963,5 14.5122109,5 L15.5222732,5 C19.3910092,5 22.7129652,8.13156983 22.9544019,11.994557 L23.0187069,13.0234375 C23.2575306,16.8446169 20.7620672,20.0377066 17.2122589,20.8177918 L17.5710848,26.0024557 L17.5710848,26.0024557 Z M13.8534932,20.9726103 C13.7288507,23.2483475 13.576933,26 13.5710848,26 L16.5710849,26 C16.5628646,26 16.3736155,23.245784 16.2186054,20.9694312 C15.9874162,20.9896685 15.7527593,21 15.5150356,21 L14.5194485,21 C14.2946137,21 14.0725152,20.9907498 13.8534932,20.9726103 L13.8534932,20.9726103 Z M26.0710848,21.5 C26.0710848,20.3954305 25.1756543,19.5 24.0710848,19.5 C22.9665153,19.5 22.0710848,20.3954305 22.0710848,21.5 C22.0710848,22.6045695 22.9665153,23.5 24.0710848,23.5 C25.1756543,23.5 26.0710848,22.6045695 26.0710848,21.5 L26.0710848,21.5 Z M23.0710848,21.5 C23.0710848,20.9477153 23.5188001,20.5 24.0710848,20.5 C24.6233695,20.5 25.0710848,20.9477153 25.0710848,21.5 C25.0710848,22.0522847 24.6233695,22.5 24.0710848,22.5 C23.5188001,22.5 23.0710848,22.0522847 23.0710848,21.5 L23.0710848,21.5 Z" id="table-tennis" sketch:type="MSShapeGroup"></path>
        </g>
    </g>
</svg>

<svg width="32" height="32" xmlns="http://www.w3.org/2000/svg"><path d="M8.47 16a6.684 6.684 0 0 1-.454-2.98l.074-1.042C8.326 8.683 11.206 6 14.523 6h.989c3.312 0 6.196 2.676 6.432 5.978l.075 1.043A6.776 6.776 0 0 1 21.57 16H8.47zm.508 1c1.132 1.813 3.15 3 5.534 3h1.01c2.381 0 4.4-1.187 5.533-3H8.978zm8.593 9.002c.03.552-.442.998-1 .998h-3c-.566 0-1.029-.447-.998-.998l.287-5.176c-3.569-.766-6.084-3.968-5.844-7.803l.064-1.028C7.322 8.123 10.65 5 14.512 5h1.01c3.869 0 7.191 3.132 7.432 6.995l.065 1.028c.239 3.822-2.257 7.015-5.807 7.795l.36 5.184zm-3.718-5.03A828.23 828.23 0 0 1 13.571 26h3c-.008 0-.197-2.754-.352-5.03-.232.02-.466.03-.704.03h-.996c-.224 0-.446-.01-.666-.027zm12.218.528a2 2 0 1 0-4 0 2 2 0 0 0 4 0zm-3 0a1 1 0 1 1 2 0 1 1 0 0 1-2 0z" fill="#929292" fill-rule="evenodd"/></svg>
